X:1
T:James Gibb editions
T:Quando ritrovo la mia pastorella - Festa
T:#
%%score [ 1 2 3 4 ]
L:1/8
Q:1/4=130
M:4/4
K:F
V:1 treble nm="Soprano" snm="S"
V:2 treble nm="Alto" snm="A"
V:3 treble-8 nm="Tenor" snm="T"
V:4 bass nm="Bass" snm="B"
V:1
"^Quando ritrovo la mia pastorella""^Costanzo Festa\n(1490-1545)" c4 c2 d2 | (c3 G) A2 B2 | %2
w: Quan- do ri-|tro\- * vo la|
 G2 F2 F2 c2 | c4 c4 | z4 B4 | B2 B2 A4- | A2 A2 G2 c2 | c2 c2 c4 | c4 c4 |[M:4/4] c2 c2 f2 f2 | %10
w: mi- a pa- sto-|rel- la|Al|pra- to con|* le pe- cor'|in pa- stu-|ra, Io|mi gli~~ac- cost' e|
 d2 d2 c2 B2 | c4 A4- | A4 c4 | c2 c2 f2 f2 | d2 d2 c2 B2 | c4 A4- | A4 c4- | c4 c3 B | A2 A2 A4 | %19
w: pre- sto la sa-|lu- to.|* La|mi ri- spon- de,|"Tu sia~el ben- ve-|nu- to."|* Et|* poi gli|dic' in quel-|
 F2 B2 A2 B2 | A2 A2 F2 F2 | c4 d3 c | c2 A2 A4 | F2 B2 A2 B2 | A2 A2 F2 F2 | f4 f2 f2 | f2 f2 d4 | %27
w: la, "O gen- til|pa- sto- rel- la,|Non men cru-|del che bel-|la, Sei del mio|ben ri- bel- la;|Deh non es-|ser ver me|
 c2 d4 c2 | (d4 B2 AG) | F2 B2 A2 B2 | A2 A2 F2 F2 | z2 A2 A2 A2 | A2 c2 c2 c2 | A2 A2 A2 A2 | %34
w: co- tan- to|du\- * * *|ra." Co- sì ri-|spond' an- ch'el- la,|"Di- spo- sta|son a quel tuo|cor de- si- a,|
 z2 A2 A2 A2 | A2 c2 c2 c2 | z2 c2 c2 B2 | c4 A4 | z2 A2 A2 A2 | A2 c2 c2 c2 | %40
w: Ma se non|hai de- na- ri,|va~al- la tua|vi- a,|Ma se non|hai de- na- ri,|
 z2[Q:1/4=128] c2[Q:1/4=125] c2[Q:1/4=122] B2 |[Q:1/4=118] c4[Q:1/4=112] A4- | %42
w: va~al- la tu-|a via."|
[Q:1/4=110] !fermata!A8 |] %43
w: |
V:2
 F4 F2 F2 | F4 F2 F2 | E2 C2 D2 E2 | F4 F4 | z4 F4 | F2 F2 F4 | z2 F2 G2 G2 | G2 G2 A4 | A4 A4 | %9
w: Quan- do ri-|tro- vo la|mi- a pa- sto-|rel- la|Al|pra- to con|le pe- cor'|in pa- stu-|ra, Io|
[M:4/4] A2 G2 B2 A2 | G2 F2 E2 F2- | F2 E2 F4- | F4 A4 | A2 G2 B2 A2 | G2 F2 E2 F2- | F2 E2 F4- | %16
w: mi gli~ac- cost' e|pre- sto la sa\-|* lu- to.|* La|mi ri- spon- de,|"Tu sia~el ben- ve\-|* nu- to."|
 F4 E4- | E4 F3 E | D2 D2 C2 C2 | z2 D2 D2 D2 | D2 C2 D2 D2 | E4 G3 F | E2 D2 C2 C2 | z2 D2 D2 D2 | %24
w: * Et|* poi gli|dic' in quel- la,|"O gen- til|pa- sto- rel- la,|Non men cru-|del che bel- la,|Sei del mio|
 D2 C2 D2 D2 | A4 A2 A2 | B2 A2 (G3 F | EFGE) F2 G2- | G2 ^F2 G2 G2 | z2 D2 D2 D2 | D2 C2 D2 D2 | %31
w: ben ri- bel- la;|Deh non es-|ser ver me *|* * * * co- tan\-|* to du- ra."|Co- sì ri-|spond' an- ch'el- la,|
 z2 C2 D2 C2 | D2 E2 F2 E2 | D2 D2 C2 C2 | z2 C2 D2 C2 | D2 E2 F2 F2 | z2 F2 E2 F2- | F2 E2 F2 F2 | %38
w: "Di- spo- sta|son a quel tuo|cor de- si- a,|Ma se non|hai de- na- ri,|va~al- la tu\-|* a vi- a,|
 z2 C2 D2 C2 | D2 E2 F2 F2 | z2 F2 E2 F2- | F2 E2 F4- | F4 !fermata!F4 |] %43
w: Ma se non|hai de- na- ri,|va~al- la tu\-|* a vi\-|* a."|
V:3
 A4 A2 B2 | (A3 G) F2 B2 | G2 F2 F2 c2 | c4 c4 | z4 B4 | B2 B2 A4- | A2 A2 G2 c2 | c2 c2 c4 | %8
w: Quan- do ri-|tro\- * vo la|mi- a pa- sto-|rel- la|Al|pra- to con|* le pe- cor'|in pa- stu-|
 c4 c4 |[M:4/4][K:treble-8] c2 c2 d2 c2 | B2 A2 G2 F2 | G4 F4- | F4 c4 | c2 c2 d2 c2 | %14
w: ra, Io|mi gli~~ac- cost' e|pre- sto la sa-|lu- to.|* La|mi ri- spon- de,|
 B2 A2 G2 F2 | G4 F4- | F4 G4- | G4 A3 G | F2 F2 E4 | D2 G2 F2 G2 | E2 E2 D2 D2 | G4 B3 A | %22
w: "Tu sia~el ben- ve-|nu- to."|* Et|* poi gli|dic' in quel-|la, "O gen- til|pa- sto- rel- la,|Non men cru-|
 G2 F2 E4 | D2 G2 F2 G2 | E2 E2 D2 D2 | d4 c2 c2 | d2 c2 (B3 A | GABG A2) G2 | A2 A2 G4 | %29
w: del che bel-|la, Sei del mio|ben ri- bel- la;|Deh non es-|ser ver me *|* * * * * co-|tan- to du-|
 D2 G2 F2 G2 | E2 E2 D2 D2 | z2 E2 F2 E2 | F2 G2 A2 G2 | F2 F2 E2 E2 | z2 E2 F2 E2 | F2 G2 A2 A2 | %36
w: ra." Co- sì ri-|spond' an- ch'el- la,|"Di- spo- sta|son a quel tuo|cor de- si- a,|Ma se non|hai de- na- ri,|
 z2 A2 G2 F2 | G4 F4 | z2 E2 F2 E2 | F2 G2 A2 A2 | z2 A2 G2 F2 | G4 F4- | !fermata!F8 |] %43
w: va~al- la tua|vi- a,|Ma se non|hai de- na- ri,|va~al- la tu-|a via."||
V:4
 F,4 F,2 B,,2 | (F,3 E,) D,2 B,,2 | C,2 F,,2 B,,2 C,2 | F,,4 F,,4 | z4 (B,,3 C,) | D,2 E,2 F,4- | %6
w: Quan- do ri-|tro\- * vo la|mi- a pa- sto-|rel- la|Al *|pra- to con|
 F,2 F,2 C,2 C,2 | C,2 C,2 F,4 | F,4 F,4 |[M:4/4] F,2 C,2 B,,2 F,2 | G,2 (D,F,) C,2 D,2 | %11
w: * le pe- cor'|in pa- stu-|ra, Io|mi gli~~ac- cost' e|pre- sto * la sa-|
 C,4 F,,4- | F,,4 F,4 | F,2 C,2 B,,2 F,2 | G,2 D,F, C,2 D,2 | C,4 F,,4- | F,,4 C,4- | C,4 F,3 C, | %18
w: lu- to.|* La|mi ri- spon- de,|"Tu sia el ben- ve-|nu- to."|* Et|* poi gli|
 D,2 D,2 A,,4 | B,,2 G,,2 D,2 G,,2 | A,,2 A,,2 D,2 D,2 | C,4 G,,3 A,, | C,2 D,2 A,,4 | %23
w: dic' in quel-|la, "O gen- til|pa- sto- rel- la,|Non men cru-|del che bel-|
 B,,2 G,,2 D,2 G,,2 | A,,2 A,,2 D,2 D,2 | D,4 F,2 F,2 | B,,2 F,2 G,4 | C,2 G,2 D,2 _E,2 | %28
w: la, Sei del mio|ben ri- bel- la;|Deh non es-|ser ver me|co- tan- to du-|
 D,4 G,,4 | B,,2 G,,2 D,2 G,,2 | A,,4 D,4 | z2 A,,2 D,2 A,,2 | D,2 C,2 F,2 C,2 | %33
w: ra". Co-|sì ri- spond' an-|ch'el- la,|"Di- spo- sta|son a quel tuo|
 D,2 D,2 A,,2 A,,2 | z2 A,,2 D,2 A,,2 | D,2 C,2 F,2 F,2 | z2 F,2 C,2 D,2 | C,4 F,,4 | %38
w: cor de- si- a,|Ma se non|hai de- na- ri,|va~al- la tua|vi- a,|
 z2 A,,2 D,2 A,,2 | D,2 C,2 F,2 F,2 | z2 F,2 C,2 D,2 | C,4 F,,4- | !fermata!F,,8 |] %43
w: Ma se non|hai de- na- ri,|va~al- la tu-|a via."||

